actions/22x22-dark/chronometer-reset.svg

<svg xmlns="http://www.w3.org/2000/svg" viewBox="0 0 22 22">
 <defs id="defs3051">
   <style type="text/css" id="current-color-scheme">
     .ColorScheme-Text {
       color:#f2f2f2;
     }
     </style>
 </defs>
   <path
      style="fill:currentColor;fill-opacity:1;stroke:none"
      d="m9.3691406 3c-.2532478 0-.4609375.2035431-.4609375.4609375v.3808594c0 .2570276.2076897.4648437.4609375.4648437h.1601563v.2675782c.0002538.3861056.2448511.4183646.3671875.4101562.020789-.0030746.0416896-.006832.0644531-.0097656h.0039063c.4343122-.0594616 1.1534152-.1167075 1.9785152-.0117188 0 0 .528783.0974015.527344-.3886718v-.2695313h.162109c.253502 0 .458985-.2054963.458985-.4628906v-.3808594c-.000028-.2571687-.207436-.4609375-.460938-.4609375zm5.2402344 1.7011719c-.042668.0086103-.075386.0355972-.097656.0605469l-.03711.0527343-.314453.4511719c-.001495.0017207-.178842.2804343.103516.4277344.403228.1984404 1.142677.6175095 1.851562 1.2929687v-.0019531s.254476.2568088.433594.0019531l.341797-.4902343c.119177-.172151-.034844-.2909719-.050781-.3027344l-2.070313-1.4472656h-.001953c-.063749-.0443565-.115535-.0535323-.158203-.0449219zm-3.609375.8613281c-3.7104277 0-6.71875 3.0079838-6.71875 6.71875 0 3.709835 3.0082941 6.71875 6.71875 6.71875 3.710399 0 6.71875-3.008943 6.71875-6.71875 0-3.7107662-3.008351-6.71875-6.71875-6.71875zm.099609 2.9375c.541653 0 1.059667.1065057 1.552735.3183594.493132.2118536.91772.4959087 1.27539.8535156.357607.357607.643743.782323.855469 1.275391.21179.493068.316406 1.011018.316406 1.552734 0 .541588-.104616 1.059666-.316406 1.552734-.211854.493068-.497862.917656-.855469 1.275391-.357734.357543-.782322.641726-1.27539.853516-.493068.211789-1.011082.318359-1.552735.318359-.597204 0-1.1649243-.125273-1.7031246-.376953s-.996489-.608051-1.375-1.066406c-.0242922-.034713-.0349292-.073718-.0332032-.117188.0017262-.043406.0171777-.077597.0449219-.105469l.7128907-.71875c.0347122-.03126.0787589-.046875.1308593-.046875.0555525.006968.0948483.027788.1191407.0625.25347.329927.5636136.585096.9316406.765625.3680906.18053.7586516.269532 1.1718746.269532.361059 0 .70702-.070299 1.035157-.210938.328072-.140575.611964-.330714.851562-.570312s.429674-.523426.570313-.851563c.140575-.328136.210937-.672016.210937-1.033203s-.070362-.705067-.210937-1.033203c-.140639-.328137-.330715-.612029-.570313-.851563-.239598-.239598-.523426-.429673-.851562-.570312-.328137-.1405754-.674034-.2109376-1.035157-.2109376-.340282 0-.665977.0603428-.978515.1835936-.3124751.123315-.5908707.300119-.8339846.529297l.7148436.71875c.107653.104201.13127.223978.072266.359375-.059005.138913-.1607598.208984-.3066409.208984h-2.3339843c-.0902649 0-.1683386-.033636-.234375-.099609-.0659727-.065973-.0996094-.14411-.0996094-.234375v-2.3339844c0-.1458172.0700712-.2475722.2089844-.3066406.135461-.0590045.2551741-.0353872.359375.0722656l.6777343.671875c.371543-.3507028.7960317-.6217136 1.2734375-.8144531.4774694-.1927395.9700764-.2890625 1.4804684-.2890625z"
      class="ColorScheme-Text" />
</svg>

<svg xmlns="http://www.w3.org/2000/svg" viewBox="0 0 22 22">
  <defs id="defs3051">
    <style type="text/css" id="current-color-scheme">
      .ColorScheme-Text {
        color:#f2f2f2
      }
      </style>
  </defs>
 <path 
     style="fill:currentColor;fill-opacity:1;stroke:none"      
	 class="ColorScheme-Text"
        d="M 9.3691406 3 C 9.1158928 3 8.9082031 3.2035431 8.9082031 3.4609375 L 8.9082031 3.8417969 C 8.9082031 4.0988245 9.1158928 4.3066406 9.3691406 4.3066406 L 9.5292969 4.3066406 L 9.5292969 4.5742188 C 9.5295507 4.9603244 9.774148 4.9925834 9.8964844 4.984375 C 9.9172734 4.9813004 9.938174 4.977543 9.9609375 4.9746094 C 9.9611914 4.9746094 9.9648438 4.9746094 9.9648438 4.9746094 C 10.399156 4.9151478 11.118259 4.8579019 11.943359 4.9628906 C 11.943359 4.9628906 12.472142 5.0602921 12.470703 4.5742188 L 12.470703 4.3046875 L 12.632812 4.3046875 C 12.886314 4.3046875 13.091797 4.0991912 13.091797 3.8417969 L 13.091797 3.4609375 C 13.091769 3.2037688 12.884361 3 12.630859 3 L 9.3691406 3 z M 14.609375 4.7011719 C 14.566707 4.7097822 14.533989 4.7367691 14.511719 4.7617188 L 14.474609 4.8144531 L 14.160156 5.265625 C 14.158661 5.2673457 13.981314 5.5460593 14.263672 5.6933594 C 14.6669 5.8917998 15.406349 6.3108689 16.115234 6.9863281 L 16.115234 6.984375 C 16.115234 6.984375 16.36971 7.2411838 16.548828 6.9863281 L 16.890625 6.4960938 C 17.009802 6.3239428 16.855781 6.2051219 16.839844 6.1933594 L 14.769531 4.7460938 L 14.767578 4.7460938 C 14.703829 4.7017373 14.652043 4.6925615 14.609375 4.7011719 z M 11 5.5625 C 7.2895723 5.5625 4.28125 8.5704838 4.28125 12.28125 C 4.28125 15.991085 7.2895441 19 11 19 C 14.710399 19 17.71875 15.991057 17.71875 12.28125 C 17.71875 8.5704838 14.710399 5.5625 11 5.5625 z M 11.099609 8.5 C 11.641262 8.5 12.159276 8.6065057 12.652344 8.8183594 C 13.145476 9.030213 13.570064 9.3142681 13.927734 9.671875 C 14.285341 10.029482 14.571477 10.454198 14.783203 10.947266 C 14.994993 11.440334 15.099609 11.958284 15.099609 12.5 C 15.099609 13.041588 14.994993 13.559666 14.783203 14.052734 C 14.571349 14.545802 14.285341 14.97039 13.927734 15.328125 C 13.57 15.685668 13.145412 15.969851 12.652344 16.181641 C 12.159276 16.39343 11.641262 16.5 11.099609 16.5 C 10.502405 16.5 9.9346847 16.374727 9.3964844 16.123047 C 8.8582841 15.871367 8.3999954 15.514996 8.0214844 15.056641 C 7.9971922 15.021928 7.9865552 14.982923 7.9882812 14.939453 C 7.9900074 14.896047 8.0054589 14.861856 8.0332031 14.833984 L 8.7460938 14.115234 C 8.780806 14.083974 8.8248527 14.068359 8.8769531 14.068359 C 8.9325056 14.075327 8.9718014 14.096147 8.9960938 14.130859 C 9.2495638 14.460786 9.5597074 14.715955 9.9277344 14.896484 C 10.295825 15.077014 10.686386 15.166016 11.099609 15.166016 C 11.460668 15.166016 11.806629 15.095717 12.134766 14.955078 C 12.462838 14.814503 12.74673 14.624364 12.986328 14.384766 C 13.225926 14.145168 13.416002 13.86134 13.556641 13.533203 C 13.697216 13.205067 13.767578 12.861187 13.767578 12.5 C 13.767578 12.138813 13.697216 11.794933 13.556641 11.466797 C 13.416002 11.13866 13.225926 10.854768 12.986328 10.615234 C 12.74673 10.375636 12.462902 10.185561 12.134766 10.044922 C 11.806629 9.9043466 11.460732 9.8339844 11.099609 9.8339844 C 10.759327 9.8339844 10.433632 9.8943272 10.121094 10.017578 C 9.8086189 10.140893 9.5302233 10.317697 9.2871094 10.546875 L 10.001953 11.265625 C 10.109606 11.369826 10.133223 11.489603 10.074219 11.625 C 10.015214 11.763913 9.9134592 11.833984 9.7675781 11.833984 L 7.4335938 11.833984 C 7.3433289 11.833984 7.2652552 11.800348 7.1992188 11.734375 C 7.1332461 11.668402 7.0996094 11.590265 7.0996094 11.5 L 7.0996094 9.1660156 C 7.0996094 9.0201984 7.1696806 8.9184434 7.3085938 8.859375 C 7.4440548 8.8003705 7.5637679 8.8239878 7.6679688 8.9316406 L 8.3457031 9.6035156 C 8.7172461 9.2528128 9.1417348 8.981802 9.6191406 8.7890625 C 10.09661 8.596323 10.589217 8.5 11.099609 8.5 z "
     />
</svg>
